src/components/common/icons/aeroplane.svg

<?xml version="1.0" encoding="UTF-8"?>
<svg width="56px" height="56px" viewBox="0 0 56 56" version="1.1" xmlns="http://www.w3.org/2000/svg" xmlns:xlink="http://www.w3.org/1999/xlink">
    <!-- Generator: Sketch 52.5 (67469) - http://www.bohemiancoding.com/sketch -->
    <title>Icons/.Aeroplane</title>
    <desc>Created with Sketch.</desc>
    <g id="Vapaaehtoisalusta-Layouts" stroke="none" stroke-width="1" fill="none" fill-rule="evenodd">
        <g id="HKI-Ikonit" transform="translate(-929.000000, -244.000000)" fill="#010202">
            <g id="Icons/.Aeroplane" transform="translate(929.000000, 244.000000)">
                <path d="M22.3736,55.75472 L12.6136,43.92112 L0.7976,34.18032 L4.9832,29.99472 C6.1928,28.78512 7.8008,28.11952 9.5112,28.11952 C10.0856,28.11952 10.6568,28.19632 11.2104,28.34832 L16.3528,29.76432 L20.0088,26.10832 L3.3,11.87472 L7.5848,7.58992 C8.8168,6.35792 10.4552,5.67952 12.1976,5.67952 C13.228,5.67952 14.2552,5.92752 15.172,6.39792 L31.3992,14.71952 L43.2984,2.81872 C44.6936,1.42512 46.5464,0.65712 48.5176,0.65712 C50.4888,0.65712 52.3416,1.42352 53.7352,2.81872 C55.1288,4.21232 55.8968,6.06512 55.8968,8.03632 C55.8968,10.00752 55.1288,11.86032 53.7352,13.25552 L41.8216,25.16752 L49.6008,40.80272 C50.8504,43.31632 50.3576,46.33712 48.372,48.32112 L44.0552,52.63952 L30.4392,36.54992 L26.7896,40.19952 L28.2072,45.34192 C28.8152,47.55792 28.1848,49.94352 26.5592,51.56912 L22.3736,55.75472 Z M7.1208,33.87632 L15.636,40.89552 L22.6776,49.43312 L23.5496,48.55952 C24.0952,48.01552 24.3064,47.21552 24.1016,46.47152 L22.0296,38.94192 L30.7016,30.26832 L44.316,46.35952 L45.3624,45.31152 C46.052,44.62192 46.2248,43.57232 45.7896,42.69872 L36.6472,24.32272 L50.7256,10.24432 C51.316,9.65552 51.6408,8.86992 51.6408,8.03632 C51.6408,7.20272 51.316,6.41712 50.7256,5.82832 C50.1352,5.23792 49.3512,4.91312 48.5176,4.91312 C47.6824,4.91312 46.8984,5.23792 46.3096,5.82832 L32.2168,19.92112 L13.2312,10.18512 C12.908,10.02032 12.5608,9.93552 12.1976,9.93552 C11.5912,9.93552 11.0216,10.17232 10.5944,10.59952 L9.5704,11.62352 L26.2792,25.85712 L17.612,34.52432 L10.0808,32.45392 C9.8952,32.40112 9.7032,32.37552 9.5112,32.37552 C8.9384,32.37552 8.3992,32.59792 7.9928,33.00432 L7.1208,33.87632 Z" id="Fill-71"></path>
            </g>
        </g>
    </g>
</svg>

<svg height="56" viewBox="0 0 56 56" width="56" xmlns="http://www.w3.org/2000/svg"><path d="m22.3736 55.75472-9.76-11.8336-11.816-9.7408 4.1856-4.1856c1.2096-1.2096 2.8176-1.8752 4.528-1.8752.5744 0 1.1456.0768 1.6992.2288l5.1424 1.416 3.656-3.656-16.7088-14.2336 4.2848-4.2848c1.232-1.232 2.8704-1.9104 4.6128-1.9104 1.0304 0 2.0576.248 2.9744.7184l16.2272 8.3216 11.8992-11.9008c1.3952-1.3936 3.248-2.1616 5.2192-2.1616s3.824.7664 5.2176 2.1616c1.3936 1.3936 2.1616 3.2464 2.1616 5.2176s-.768 3.824-2.1616 5.2192l-11.9136 11.912 7.7792 15.6352c1.2496 2.5136.7568 5.5344-1.2288 7.5184l-4.3168 4.3184-13.616-16.0896-3.6496 3.6496 1.4176 5.1424c.608 2.216-.0224 4.6016-1.648 6.2272zm-15.2528-21.8784 8.5152 7.0192 7.0416 8.5376.872-.8736c.5456-.544.7568-1.344.552-2.088l-2.072-7.5296 8.672-8.6736 13.6144 16.0912 1.0464-1.048c.6896-.6896.8624-1.7392.4272-2.6128l-9.1424-18.376 14.0784-14.0784c.5904-.5888.9152-1.3744.9152-2.208s-.3248-1.6192-.9152-2.208c-.5904-.5904-1.3744-.9152-2.208-.9152-.8352 0-1.6192.3248-2.208.9152l-14.0928 14.0928-18.9856-9.736c-.3232-.1648-.6704-.2496-1.0336-.2496-.6064 0-1.176.2368-1.6032.664l-1.024 1.024 16.7088 14.2336-8.6672 8.6672-7.5312-2.0704c-.1856-.0528-.3776-.0784-.5696-.0784-.5728 0-1.112.2224-1.5184.6288z" fill="#010202" fill-rule="evenodd"/></svg>
